assets/icons/search_colored.svg

<svg fill="none" height="20" viewBox="0 0 20 20" width="20" xmlns="http://www.w3.org/2000/svg" xmlns:xlink="http://www.w3.org/1999/xlink"><clipPath id="a"><path d="m0 0h20v20h-20z"/></clipPath><mask id="b" height="20" maskUnits="userSpaceOnUse" width="20" x="0" y="0"><path d="m20 0h-20v20h20z" fill="#fff"/></mask><g clip-path="url(#a)"><g mask="url(#b)"><path d="m19.7556 18.5773-4.9741-4.9742c1.3555-1.6578 2.0219-3.7732 1.8615-5.90865-.1604-2.13544-1.1355-4.12752-2.7235-5.5642-1.5881-1.436673-3.6675-2.2080215-5.80831-2.154495-2.14079.0535265-4.17912.927833-5.69336 2.442075-1.514242 1.51424-2.3885485 3.55257-2.442075 5.69336-.0535265 2.14081.717822 4.22021 2.154495 5.80831 1.43668 1.588 3.42876 2.5631 5.5642 2.7235 2.13545.1604 4.25085-.506 5.90865-1.8615l4.9742 4.9741c.1572.1518.3677.2358.5862.2339s.4275-.0895.582-.244.2421-.3635.244-.582-.0821-.429-.2339-.5862zm-11.42245-3.5775c-1.31854 0-2.60747-.391-3.7038-1.1235-1.09633-.7326-1.95081-1.7738-2.45539-2.9919-.50459-1.2182-.63661-2.55864-.37937-3.85185.25723-1.2932.89217-2.48109 1.82452-3.41344s2.12024-1.56729 3.41344-1.82452c1.29321-.25724 2.63365-.12522 3.85185.37937 1.2181.50458 2.2593 1.35906 2.9919 2.45539.7325 1.09633 1.1235 2.38526 1.1235 3.7038-.002 1.76745-.705 3.46205-1.9548 4.71185s-2.9444 1.9528-4.71185 1.9548z" fill="#000"/></g></g></svg>

<svg width="20" height="20" viewBox="0 0 20 20" fill="none" xmlns="http://www.w3.org/2000/svg">
<g clip-path="url(#clip0_235_2276)">
<mask id="mask0_235_2276" style="mask-type:alpha" maskUnits="userSpaceOnUse" x="0" y="0" width="20" height="20">
<path d="M20 0H0V20H20V0Z" fill="white"/>
</mask>
<g mask="url(#mask0_235_2276)">
<path d="M19.7556 18.5773L14.7815 13.6031C16.137 11.9453 16.8034 9.8299 16.643 7.69445C16.4826 5.55901 15.5075 3.56693 13.9195 2.13025C12.3314 0.693577 10.252 -0.0777715 8.11119 -0.024245C5.9704 0.0292815 3.93207 0.903588 2.41783 2.41783C0.903588 3.93207 0.0292815 5.9704 -0.024245 8.11119C-0.0777715 10.252 0.693577 12.3314 2.13025 13.9195C3.56693 15.5075 5.55901 16.4826 7.69445 16.643C9.8299 16.8034 11.9453 16.137 13.6031 14.7815L18.5773 19.7556C18.7345 19.9074 18.945 19.9914 19.1635 19.9895C19.382 19.9876 19.591 19.9 19.7455 19.7455C19.9 19.591 19.9876 19.382 19.9895 19.1635C19.9914 18.945 19.9074 18.7345 19.7556 18.5773ZM8.33315 14.9998C7.01461 14.9998 5.72568 14.6088 4.62935 13.8763C3.53302 13.1437 2.67854 12.1025 2.17396 10.8844C1.66937 9.6662 1.53735 8.32576 1.79459 7.03255C2.05182 5.73935 2.68676 4.55146 3.61911 3.61911C4.55146 2.68676 5.73935 2.05182 7.03255 1.79459C8.32576 1.53735 9.6662 1.66937 10.8844 2.17396C12.1025 2.67854 13.1437 3.53302 13.8763 4.62935C14.6088 5.72568 14.9998 7.01461 14.9998 8.33315C14.9978 10.1006 14.2948 11.7952 13.045 13.045C11.7952 14.2948 10.1006 14.9978 8.33315 14.9998Z" fill="black"/>
</g>
</g>
<defs>
<clipPath id="clip0_235_2276">
<rect width="20" height="20" fill="white"/>
</clipPath>
</defs>
</svg>
